assets/noto-color-emoji-svg/cleaned/1f939-200d-2640-fe0f.svg

<?xml version="1.0" encoding="UTF-8" standalone="no"?>
<!-- Generator: Adobe Illustrator 19.2.1, SVG Export Plug-In . SVG Version: 6.00 Build 0)  -->

<svg
   xmlns:dc="http://purl.org/dc/elements/1.1/"
   xmlns:cc="http://creativecommons.org/ns#"
   xmlns:rdf="http://www.w3.org/1999/02/22-rdf-syntax-ns#"
   xmlns:svg="http://www.w3.org/2000/svg"
   xmlns="http://www.w3.org/2000/svg"
   xmlns:xlink="http://www.w3.org/1999/xlink"
   xmlns:sodipodi="http://sodipodi.sourceforge.net/DTD/sodipodi-0.dtd"
   xmlns:inkscape="http://www.inkscape.org/namespaces/inkscape"
   version="1.1"
   id="图层_1"
   x="0px"
   y="0px"
   viewBox="0 0 128 128"
   style="enable-background:new 0 0 128 128;"
   xml:space="preserve"
   inkscape:version="0.91 r13725"
   sodipodi:docname="1f939-200d-2640-fe0f.svg"><metadata
     id="metadata640"><rdf:RDF><cc:Work
         rdf:about=""><dc:format>image/svg+xml</dc:format><dc:type
           rdf:resource="http://purl.org/dc/dcmitype/StillImage" /><dc:title></dc:title></cc:Work></rdf:RDF></metadata><defs
     id="defs638" /><sodipodi:namedview
     pagecolor="#ffffff"
     bordercolor="#666666"
     borderopacity="1"
     objecttolerance="10"
     gridtolerance="10"
     guidetolerance="10"
     inkscape:pageopacity="0"
     inkscape:pageshadow="2"
     inkscape:window-width="640"
     inkscape:window-height="480"
     id="namedview636"
     showgrid="false"
     inkscape:zoom="1.84375"
     inkscape:cx="64"
     inkscape:cy="64"
     inkscape:window-x="0"
     inkscape:window-y="0"
     inkscape:window-maximized="0"
     inkscape:current-layer="图层_1" /><path
     id="XMLID_12_"
     style="fill:#6D4C41;"
     d="M43.99,82.49c-3.67-12.6-3.67-38.42-3.67-38.42l47.36-0.19c0,0,0,23.39-2.75,38.45  L43.99,82.49z" /><path
     style="fill:#651FFF;"
     d="M 62.910156 74.970703 L 62.910156 75.037109 C 61.366995 75.116835 62.070612 75.210937 60.650391 75.210938 C 52.400391 75.210938 42.120078 77.630859 34.330078 90.630859 L 23.289062 77.230469 C 23.089063 76.680469 22.489688 76.380547 21.929688 76.560547 L 13.240234 79.169922 C 12.700234 79.339922 12.380234 79.889453 12.490234 80.439453 C 12.490234 80.439453 21.450938 100.90945 21.460938 100.93945 C 23.250937 104.85945 26.449375 110.13086 31.609375 110.13086 C 37.379375 110.13086 40.899453 105.30023 42.439453 103.49023 L 42.439453 128 L 62.910156 128 L 65.089844 128 L 85.560547 128 L 85.560547 103.49023 C 87.100547 105.30023 90.620625 110.13086 96.390625 110.13086 C 101.55062 110.13086 104.74906 104.85945 106.53906 100.93945 C 106.54906 100.90945 115.50977 80.439453 115.50977 80.439453 C 115.61977 79.889453 115.29977 79.339922 114.75977 79.169922 L 106.07031 76.560547 C 105.51031 76.380547 104.91094 76.680469 104.71094 77.230469 L 93.660156 90.640625 C 85.870156 77.640625 75.589844 75.220703 67.339844 75.220703 C 65.921492 75.213078 66.618849 75.117196 65.089844 75.037109 L 65.089844 74.970703 C 64.564006 74.980178 64.3638 74.992586 63.998047 75.003906 C 63.633741 74.992561 63.433971 74.980184 62.910156 74.970703 z "
     id="path542" /><g
     id="XMLID_1575_"><path
       id="XMLID_1577_"
       style="fill:#C4C6C7;"
       d="M21.46,64.57c-0.88,0.36-1.6,0.95-1.89,1.73c-0.22,0.58-0.25,0.79-0.42,2.39   c-0.85,1.45-3-1.08-3.65-1.92c-0.04-0.05-3.68-5.08-4.27-5.96c-0.69-1.03-1.54-1.34-2.25-0.87c-0.76,0.51-0.36,1.79-0.01,2.32   c0.54,0.81,1.72,2.8,3.06,4.63c0,0,0.12,0.19,0.1,0.25c-0.09,0.48-0.62,0.28-0.62,0.28c-1.24-1.17-4.09-4.15-4.74-4.83   c-1.12-1.18-2.01-1.41-2.63-0.83c-0.82,0.76-0.41,1.7,0.69,2.85c0.66,0.69,2.7,2.75,4.53,4.75c0.2,0.82-0.59,0.69-0.59,0.69   c-1.99-1.66-4.01-3.49-4.65-3.98c-1.03-0.8-1.76-0.93-2.33-0.3c-0.6,0.66-0.33,1.4,0.8,2.39c0.81,0.71,3.31,2.96,4.63,4.07   c0.53,0.9-0.37,0.96-0.37,0.96c-2.04-1.49-2.51-1.78-3.06-2.12c-1.15-0.73-1.72-0.75-2.18-0.03c-0.5,0.81,0.04,1.43,0.99,2.18   c0.64,0.5,5,3.82,6.53,5.33c2.35,2.32,5.56,2.39,7.26,1.76c2.39-0.88,4.51-2.1,5.46-4.99c0.23-0.7,0.05-2.24,0.1-2.97   c0.01-0.12-0.13-2.66-0.06-2.93c0.18-0.7,0.37-1.39,0.54-1.88c0.18-0.53,0.33-1.09,0.38-1.35C23.05,64.76,22.27,64.24,21.46,64.57z   " /></g><g
     id="XMLID_1576_"><path
       id="XMLID_1578_"
       style="fill:#C4C6C7;"
       d="M106.54,64.57c0.88,0.36,1.6,0.95,1.89,1.73c0.22,0.58,0.25,0.79,0.42,2.39   c0.85,1.45,3-1.08,3.65-1.92c0.04-0.05,3.68-5.08,4.27-5.96c0.69-1.03,1.54-1.34,2.25-0.87c0.76,0.51,0.36,1.79,0.01,2.32   c-0.54,0.81-1.72,2.8-3.06,4.63c0,0-0.12,0.19-0.1,0.25c0.09,0.48,0.62,0.28,0.62,0.28c1.24-1.17,4.09-4.15,4.74-4.83   c1.12-1.18,2.01-1.41,2.63-0.83c0.82,0.76,0.41,1.7-0.69,2.85c-0.66,0.69-2.7,2.75-4.53,4.75c-0.2,0.82,0.59,0.69,0.59,0.69   c1.99-1.66,4.01-3.49,4.65-3.98c1.03-0.8,1.76-0.93,2.33-0.3c0.6,0.66,0.33,1.4-0.8,2.39c-0.81,0.71-3.31,2.96-4.63,4.07   c-0.53,0.9,0.37,0.96,0.37,0.96c2.04-1.49,2.51-1.78,3.06-2.12c1.15-0.73,1.72-0.75,2.18-0.03c0.5,0.81-0.04,1.43-0.99,2.18   c-0.64,0.5-5,3.82-6.53,5.33c-2.35,2.32-5.56,2.39-7.26,1.76c-2.39-0.88-4.51-2.1-5.46-4.99c-0.23-0.7-0.05-2.24-0.1-2.97   c-0.01-0.12,0.13-2.66,0.06-2.93c-0.18-0.7-0.37-1.39-0.54-1.88c-0.18-0.53-0.33-1.09-0.38-1.35   C104.95,64.76,105.73,64.24,106.54,64.57z" /></g><g
     id="XMLID_10_"><ellipse
       id="XMLID_11_"
       style="fill:#6D4C41;"
       cx="64"
       cy="44.47"
       rx="23.68"
       ry="22.27" /></g><path
     id="XMLID_9_"
     style="fill:#E49800;"
     d="M63.97,69.36h-5.12v5.41c0,2.45,2.08,4.43,4.66,4.43h0.93c2.57,0,4.66-1.98,4.66-4.43  v-5.41H63.97z" /><path
     id="XMLID_8_"
     style="fill:#FBC11B;"
     d="M63.94,26.13c-13.73,0-17.32,10.64-17.32,25.59c0,14.95,10.65,19.51,17.32,19.51  c6.67,0,17.32-4.56,17.32-19.51C81.26,36.77,77.67,26.13,63.94,26.13z" /><path
     id="XMLID_7_"
     style="fill:#513F35;"
     d="M69.2,62.52c-0.73,0-5.2,0-5.2,0s-4.47,0-5.2,0c-0.6,0-0.85,0.4-0.46,1  c0.55,0.84,2.6,2.46,5.66,2.46c3.06,0,5.11-1.62,5.66-2.46C70.05,62.92,69.8,62.52,69.2,62.52z" /><g
     id="XMLID_4_"><path
       id="XMLID_6_"
       style="fill:#444444;"
       d="M58.08,52.71c0,1.6-1.07,2.9-2.4,2.9c-1.33,0-2.41-1.3-2.41-2.9   c0-1.61,1.08-2.91,2.41-2.91C57.01,49.81,58.08,51.11,58.08,52.71" /><path
       id="XMLID_5_"
       style="fill:#444444;"
       d="M69.92,52.71c0,1.6,1.07,2.9,2.41,2.9c1.33,0,2.4-1.3,2.4-2.9   c0-1.61-1.08-2.91-2.4-2.91C70.99,49.81,69.92,51.11,69.92,52.71" /></g><path
     id="XMLID_3_"
     style="fill:#E49500;"
     d="M66.48,58.09c-0.89,0.25-1.8,0.37-2.51,0.37c-0.71,0-1.63-0.12-2.51-0.37  c-0.38-0.11-0.53,0.25-0.39,0.49c0.28,0.49,1.41,1.49,2.9,1.49c1.49,0,2.62-1,2.9-1.49C67.01,58.34,66.86,57.99,66.48,58.09z" /><path
     id="XMLID_2_"
     style="fill:#6D4C41;"
     d="M69.11,37.89c-1.82,1.75-10.88,9.91-23.35,12.04V33.2c0,0,5.38-10.69,18.31-10.69  s18.31,10.95,18.31,10.95v16.46c0,0-8.47-3.25-12.72-11.94C69.56,37.78,69.28,37.72,69.11,37.89z" /><rect
     x="42.41"
     y="113.68"
     style="fill:#6E7177;"
     width="43.18"
     height="14.32"
     id="rect560" /><g
     id="g562"><polygon
       style="fill:#6E7177;"
       points="52.55,122.14 46.58,122.14 46.58,77.45 52.55,75.3  "
       id="polygon564" /><polygon
       style="fill:#6E7177;"
       points="75.45,122.14 81.42,122.14 81.42,77.45 75.45,75.3  "
       id="polygon566" /></g><g
     id="g568"><g
       id="g570"><g
         id="g572"><path
           d="M65.48,80.28c1.23-0.84,2.39-1.46,3.56-2.21c0.94-0.6,2.53-1.72,4.03-1.15c1.27,0.48,0.82,2.21,0.82,4.48     c0,2.66,0.45,4.21-0.55,4.65c-1.36,0.6-3.13-0.46-4.62-1.11c-0.85-0.37-3.27-1.47-3.68-2.11C64.62,82.19,64.64,80.69,65.48,80.28     z"
           id="path574" /><path
           style="fill:#444444;"
           d="M71.74,80.05c0.03,0.19-1.32,0.62-3,0.97c-1.68,0.35-3.07,0.48-3.1,0.29     c-0.03-0.19,1.32-0.62,3-0.97S71.71,79.86,71.74,80.05z"
           id="path576" /><path
           style="fill:#444444;"
           d="M71.76,83.21c-0.02,0.19-1.41,0.14-3.11-0.1c-1.7-0.24-3.06-0.59-3.04-0.78     c0.02-0.19,1.41-0.14,3.11,0.1C70.42,82.67,71.78,83.02,71.76,83.21z"
           id="path578" /></g><g
         id="g580"><path
           d="M62.52,80.28c-1.23-0.84-2.39-1.46-3.56-2.21c-0.94-0.6-2.53-1.72-4.03-1.15c-1.27,0.48-0.82,2.21-0.82,4.48     c0,2.66-0.45,4.21,0.55,4.65c1.36,0.6,3.13-0.46,4.62-1.11c0.85-0.37,3.27-1.47,3.68-2.11C63.38,82.19,63.36,80.69,62.52,80.28z"
           id="path582" /><path
           style="fill:#444444;"
           d="M56.26,80.05c-0.03,0.19,1.32,0.62,3,0.97s3.07,0.48,3.1,0.29s-1.32-0.62-3-0.97     S56.29,79.86,56.26,80.05z"
           id="path584" /><path
           style="fill:#444444;"
           d="M56.24,83.21c0.02,0.19,1.41,0.14,3.11-0.1c1.7-0.24,3.06-0.59,3.04-0.78     c-0.02-0.19-1.41-0.14-3.11,0.1C57.58,82.67,56.22,83.02,56.24,83.21z"
           id="path586" /></g></g><path
       d="M66.71,81.89c0,1.54-1.21,2.43-2.71,2.43c-1.5,0-2.71-0.89-2.71-2.43S61.97,79.1,64,79.1   C65.95,79.1,66.71,80.35,66.71,81.89z"
       id="path588" /></g><g
     id="g590"><circle
       style="fill:#FF3D00;"
       cx="12.13"
       cy="66.46"
       r="7.74"
       id="circle592" /><circle
       style="fill:#FFFFFF;"
       cx="9.82"
       cy="64"
       r="2.31"
       id="circle594" /></g><g
     id="g596"><circle
       style="fill:#00C853;"
       cx="22.85"
       cy="30.89"
       r="7.74"
       id="circle598" /><circle
       style="fill:#FFFFFF;"
       cx="20.53"
       cy="28.43"
       r="2.31"
       id="circle600" /></g><g
     id="g602"><circle
       style="fill:#FF6D00;"
       cx="56.26"
       cy="9.47"
       r="7.74"
       id="circle604" /><circle
       style="fill:#FFFFFF;"
       cx="53.95"
       cy="7.02"
       r="2.31"
       id="circle606" /></g><g
     id="g608"><circle
       style="fill:#AA00FF;"
       cx="95.97"
       cy="19.48"
       r="7.74"
       id="circle610" /><circle
       style="fill:#FFFFFF;"
       cx="93.65"
       cy="17.03"
       r="2.31"
       id="circle612" /></g><g
     id="g614"><circle
       style="fill:#29B6F6;"
       cx="115.87"
       cy="49.6"
       r="7.74"
       id="circle616" /><circle
       style="fill:#FFFFFF;"
       cx="113.55"
       cy="47.14"
       r="2.31"
       id="circle618" /></g><g
     id="g620"><ellipse
       style="fill:#6E7177;"
       cx="64"
       cy="41.18"
       rx="26.48"
       ry="6.92"
       id="ellipse622" /><ellipse
       style="fill:#8E8E8E;"
       cx="64"
       cy="39.92"
       rx="26.48"
       ry="6.92"
       id="ellipse624" /><g
       id="g626"><defs
         id="defs628"><path
           id="SVGID_1_"
           d="M87.64,38.99L87.64,38.99c-0.39-7.45-6.01-19.97-23.18-20.29c0,0-0.32-0.01-0.46-0.01     c-0.14,0-0.46,0.01-0.46,0.01c-17.17,0.32-22.79,12.84-23.18,20.29l0,0C40.36,44.82,87.64,44.82,87.64,38.99z" /></defs><use
         xlink:href="#SVGID_1_"
         style="overflow:visible;fill:#6E7177;"
         id="use631" /><clipPath
         id="SVGID_2_"><use
           xlink:href="#SVGID_1_"
           style="overflow:visible;"
           id="use634" /></clipPath></g></g></svg>

<?xml version="1.0" encoding="UTF-8" standalone="no"?>
<!-- Generator: Adobe Illustrator 19.2.1, SVG Export Plug-In . SVG Version: 6.00 Build 0)  -->

<svg
   xmlns:dc="http://purl.org/dc/elements/1.1/"
   xmlns:cc="http://creativecommons.org/ns#"
   xmlns:rdf="http://www.w3.org/1999/02/22-rdf-syntax-ns#"
   xmlns:svg="http://www.w3.org/2000/svg"
   xmlns="http://www.w3.org/2000/svg"
   xmlns:xlink="http://www.w3.org/1999/xlink"
   xmlns:sodipodi="http://sodipodi.sourceforge.net/DTD/sodipodi-0.dtd"
   xmlns:inkscape="http://www.inkscape.org/namespaces/inkscape"
   version="1.1"
   id="图层_1"
   x="0px"
   y="0px"
   viewBox="0 0 128 128"
   style="enable-background:new 0 0 128 128;"
   xml:space="preserve"
   inkscape:version="0.91 r13725"
   sodipodi:docname="1f939-200d-2640-fe0f.svg"><metadata
     id="metadata640"><rdf:RDF><cc:Work
         rdf:about=""><dc:format>image/svg+xml</dc:format><dc:type
           rdf:resource="http://purl.org/dc/dcmitype/StillImage" /><dc:title></dc:title></cc:Work></rdf:RDF></metadata><defs
     id="defs638" /><sodipodi:namedview
     pagecolor="#ffffff"
     bordercolor="#666666"
     borderopacity="1"
     objecttolerance="10"
     gridtolerance="10"
     guidetolerance="10"
     inkscape:pageopacity="0"
     inkscape:pageshadow="2"
     inkscape:window-width="640"
     inkscape:window-height="480"
     id="namedview636"
     showgrid="false"
     inkscape:zoom="1.84375"
     inkscape:cx="64"
     inkscape:cy="64"
     inkscape:window-x="0"
     inkscape:window-y="0"
     inkscape:window-maximized="0"
     inkscape:current-layer="图层_1" /><path
     id="XMLID_12_"
     style="fill:#6D4C41;"
     d="M43.99,82.49c-3.67-12.6-3.67-38.42-3.67-38.42l47.36-0.19c0,0,0,23.39-2.75,38.45  L43.99,82.49z" /><path
     style="fill:#651FFF;"
     d="M60.65,75.21c-8.25,0-18.53,2.42-26.32,15.42L23.29,77.23c-0.2-0.55-0.8-0.85-1.36-0.67l-8.69,2.61  c-0.54,0.17-0.86,0.72-0.75,1.27c0,0,8.96,20.47,8.97,20.5c1.79,3.92,4.99,9.19,10.15,9.19c5.77,0,9.29-4.83,10.83-6.64l0,24.51  h22.65V74.97C60.65,75.05,62.51,75.21,60.65,75.21z"
     id="path542" /><path
     style="fill:#651FFF;"
     d="M62.91,74.97V128h22.65l0-24.51c1.54,1.81,5.06,6.64,10.83,6.64c5.16,0,8.36-5.27,10.15-9.19  c0.01-0.03,8.97-20.5,8.97-20.5c0.11-0.55-0.21-1.1-0.75-1.27l-8.69-2.61c-0.56-0.18-1.16,0.12-1.36,0.67L93.66,90.64  c-7.79-13-18.07-15.42-26.32-15.42C65.48,75.21,67.33,75.05,62.91,74.97z"
     id="path544" /><g
     id="XMLID_1575_"><path
       id="XMLID_1577_"
       style="fill:#C4C6C7;"
       d="M21.46,64.57c-0.88,0.36-1.6,0.95-1.89,1.73c-0.22,0.58-0.25,0.79-0.42,2.39   c-0.85,1.45-3-1.08-3.65-1.92c-0.04-0.05-3.68-5.08-4.27-5.96c-0.69-1.03-1.54-1.34-2.25-0.87c-0.76,0.51-0.36,1.79-0.01,2.32   c0.54,0.81,1.72,2.8,3.06,4.63c0,0,0.12,0.19,0.1,0.25c-0.09,0.48-0.62,0.28-0.62,0.28c-1.24-1.17-4.09-4.15-4.74-4.83   c-1.12-1.18-2.01-1.41-2.63-0.83c-0.82,0.76-0.41,1.7,0.69,2.85c0.66,0.69,2.7,2.75,4.53,4.75c0.2,0.82-0.59,0.69-0.59,0.69   c-1.99-1.66-4.01-3.49-4.65-3.98c-1.03-0.8-1.76-0.93-2.33-0.3c-0.6,0.66-0.33,1.4,0.8,2.39c0.81,0.71,3.31,2.96,4.63,4.07   c0.53,0.9-0.37,0.96-0.37,0.96c-2.04-1.49-2.51-1.78-3.06-2.12c-1.15-0.73-1.72-0.75-2.18-0.03c-0.5,0.81,0.04,1.43,0.99,2.18   c0.64,0.5,5,3.82,6.53,5.33c2.35,2.32,5.56,2.39,7.26,1.76c2.39-0.88,4.51-2.1,5.46-4.99c0.23-0.7,0.05-2.24,0.1-2.97   c0.01-0.12-0.13-2.66-0.06-2.93c0.18-0.7,0.37-1.39,0.54-1.88c0.18-0.53,0.33-1.09,0.38-1.35C23.05,64.76,22.27,64.24,21.46,64.57z   " /></g><g
     id="XMLID_1576_"><path
       id="XMLID_1578_"
       style="fill:#C4C6C7;"
       d="M106.54,64.57c0.88,0.36,1.6,0.95,1.89,1.73c0.22,0.58,0.25,0.79,0.42,2.39   c0.85,1.45,3-1.08,3.65-1.92c0.04-0.05,3.68-5.08,4.27-5.96c0.69-1.03,1.54-1.34,2.25-0.87c0.76,0.51,0.36,1.79,0.01,2.32   c-0.54,0.81-1.72,2.8-3.06,4.63c0,0-0.12,0.19-0.1,0.25c0.09,0.48,0.62,0.28,0.62,0.28c1.24-1.17,4.09-4.15,4.74-4.83   c1.12-1.18,2.01-1.41,2.63-0.83c0.82,0.76,0.41,1.7-0.69,2.85c-0.66,0.69-2.7,2.75-4.53,4.75c-0.2,0.82,0.59,0.69,0.59,0.69   c1.99-1.66,4.01-3.49,4.65-3.98c1.03-0.8,1.76-0.93,2.33-0.3c0.6,0.66,0.33,1.4-0.8,2.39c-0.81,0.71-3.31,2.96-4.63,4.07   c-0.53,0.9,0.37,0.96,0.37,0.96c2.04-1.49,2.51-1.78,3.06-2.12c1.15-0.73,1.72-0.75,2.18-0.03c0.5,0.81-0.04,1.43-0.99,2.18   c-0.64,0.5-5,3.82-6.53,5.33c-2.35,2.32-5.56,2.39-7.26,1.76c-2.39-0.88-4.51-2.1-5.46-4.99c-0.23-0.7-0.05-2.24-0.1-2.97   c-0.01-0.12,0.13-2.66,0.06-2.93c-0.18-0.7-0.37-1.39-0.54-1.88c-0.18-0.53-0.33-1.09-0.38-1.35   C104.95,64.76,105.73,64.24,106.54,64.57z" /></g><g
     id="XMLID_10_"><ellipse
       id="XMLID_11_"
       style="fill:#6D4C41;"
       cx="64"
       cy="44.47"
       rx="23.68"
       ry="22.27" /></g><path
     id="XMLID_9_"
     style="fill:#E49800;"
     d="M63.97,69.36h-5.12v5.41c0,2.45,2.08,4.43,4.66,4.43h0.93c2.57,0,4.66-1.98,4.66-4.43  v-5.41H63.97z" /><path
     id="XMLID_8_"
     style="fill:#FBC11B;"
     d="M63.94,26.13c-13.73,0-17.32,10.64-17.32,25.59c0,14.95,10.65,19.51,17.32,19.51  c6.67,0,17.32-4.56,17.32-19.51C81.26,36.77,77.67,26.13,63.94,26.13z" /><path
     id="XMLID_7_"
     style="fill:#513F35;"
     d="M69.2,62.52c-0.73,0-5.2,0-5.2,0s-4.47,0-5.2,0c-0.6,0-0.85,0.4-0.46,1  c0.55,0.84,2.6,2.46,5.66,2.46c3.06,0,5.11-1.62,5.66-2.46C70.05,62.92,69.8,62.52,69.2,62.52z" /><g
     id="XMLID_4_"><path
       id="XMLID_6_"
       style="fill:#444444;"
       d="M58.08,52.71c0,1.6-1.07,2.9-2.4,2.9c-1.33,0-2.41-1.3-2.41-2.9   c0-1.61,1.08-2.91,2.41-2.91C57.01,49.81,58.08,51.11,58.08,52.71" /><path
       id="XMLID_5_"
       style="fill:#444444;"
       d="M69.92,52.71c0,1.6,1.07,2.9,2.41,2.9c1.33,0,2.4-1.3,2.4-2.9   c0-1.61-1.08-2.91-2.4-2.91C70.99,49.81,69.92,51.11,69.92,52.71" /></g><path
     id="XMLID_3_"
     style="fill:#E49500;"
     d="M66.48,58.09c-0.89,0.25-1.8,0.37-2.51,0.37c-0.71,0-1.63-0.12-2.51-0.37  c-0.38-0.11-0.53,0.25-0.39,0.49c0.28,0.49,1.41,1.49,2.9,1.49c1.49,0,2.62-1,2.9-1.49C67.01,58.34,66.86,57.99,66.48,58.09z" /><path
     id="XMLID_2_"
     style="fill:#6D4C41;"
     d="M69.11,37.89c-1.82,1.75-10.88,9.91-23.35,12.04V33.2c0,0,5.38-10.69,18.31-10.69  s18.31,10.95,18.31,10.95v16.46c0,0-8.47-3.25-12.72-11.94C69.56,37.78,69.28,37.72,69.11,37.89z" /><rect
     x="42.41"
     y="113.68"
     style="fill:#6E7177;"
     width="43.18"
     height="14.32"
     id="rect560" /><g
     id="g562"><polygon
       style="fill:#6E7177;"
       points="52.55,122.14 46.58,122.14 46.58,77.45 52.55,75.3  "
       id="polygon564" /><polygon
       style="fill:#6E7177;"
       points="75.45,122.14 81.42,122.14 81.42,77.45 75.45,75.3  "
       id="polygon566" /></g><g
     id="g568"><g
       id="g570"><g
         id="g572"><path
           d="M65.48,80.28c1.23-0.84,2.39-1.46,3.56-2.21c0.94-0.6,2.53-1.72,4.03-1.15c1.27,0.48,0.82,2.21,0.82,4.48     c0,2.66,0.45,4.21-0.55,4.65c-1.36,0.6-3.13-0.46-4.62-1.11c-0.85-0.37-3.27-1.47-3.68-2.11C64.62,82.19,64.64,80.69,65.48,80.28     z"
           id="path574" /><path
           style="fill:#444444;"
           d="M71.74,80.05c0.03,0.19-1.32,0.62-3,0.97c-1.68,0.35-3.07,0.48-3.1,0.29     c-0.03-0.19,1.32-0.62,3-0.97S71.71,79.86,71.74,80.05z"
           id="path576" /><path
           style="fill:#444444;"
           d="M71.76,83.21c-0.02,0.19-1.41,0.14-3.11-0.1c-1.7-0.24-3.06-0.59-3.04-0.78     c0.02-0.19,1.41-0.14,3.11,0.1C70.42,82.67,71.78,83.02,71.76,83.21z"
           id="path578" /></g><g
         id="g580"><path
           d="M62.52,80.28c-1.23-0.84-2.39-1.46-3.56-2.21c-0.94-0.6-2.53-1.72-4.03-1.15c-1.27,0.48-0.82,2.21-0.82,4.48     c0,2.66-0.45,4.21,0.55,4.65c1.36,0.6,3.13-0.46,4.62-1.11c0.85-0.37,3.27-1.47,3.68-2.11C63.38,82.19,63.36,80.69,62.52,80.28z"
           id="path582" /><path
           style="fill:#444444;"
           d="M56.26,80.05c-0.03,0.19,1.32,0.62,3,0.97s3.07,0.48,3.1,0.29s-1.32-0.62-3-0.97     S56.29,79.86,56.26,80.05z"
           id="path584" /><path
           style="fill:#444444;"
           d="M56.24,83.21c0.02,0.19,1.41,0.14,3.11-0.1c1.7-0.24,3.06-0.59,3.04-0.78     c-0.02-0.19-1.41-0.14-3.11,0.1C57.58,82.67,56.22,83.02,56.24,83.21z"
           id="path586" /></g></g><path
       d="M66.71,81.89c0,1.54-1.21,2.43-2.71,2.43c-1.5,0-2.71-0.89-2.71-2.43S61.97,79.1,64,79.1   C65.95,79.1,66.71,80.35,66.71,81.89z"
       id="path588" /></g><g
     id="g590"><circle
       style="fill:#FF3D00;"
       cx="12.13"
       cy="66.46"
       r="7.74"
       id="circle592" /><circle
       style="fill:#FFFFFF;"
       cx="9.82"
       cy="64"
       r="2.31"
       id="circle594" /></g><g
     id="g596"><circle
       style="fill:#00C853;"
       cx="22.85"
       cy="30.89"
       r="7.74"
       id="circle598" /><circle
       style="fill:#FFFFFF;"
       cx="20.53"
       cy="28.43"
       r="2.31"
       id="circle600" /></g><g
     id="g602"><circle
       style="fill:#FF6D00;"
       cx="56.26"
       cy="9.47"
       r="7.74"
       id="circle604" /><circle
       style="fill:#FFFFFF;"
       cx="53.95"
       cy="7.02"
       r="2.31"
       id="circle606" /></g><g
     id="g608"><circle
       style="fill:#AA00FF;"
       cx="95.97"
       cy="19.48"
       r="7.74"
       id="circle610" /><circle
       style="fill:#FFFFFF;"
       cx="93.65"
       cy="17.03"
       r="2.31"
       id="circle612" /></g><g
     id="g614"><circle
       style="fill:#29B6F6;"
       cx="115.87"
       cy="49.6"
       r="7.74"
       id="circle616" /><circle
       style="fill:#FFFFFF;"
       cx="113.55"
       cy="47.14"
       r="2.31"
       id="circle618" /></g><g
     id="g620"><ellipse
       style="fill:#6E7177;"
       cx="64"
       cy="41.18"
       rx="26.48"
       ry="6.92"
       id="ellipse622" /><ellipse
       style="fill:#8E8E8E;"
       cx="64"
       cy="39.92"
       rx="26.48"
       ry="6.92"
       id="ellipse624" /><g
       id="g626"><defs
         id="defs628"><path
           id="SVGID_1_"
           d="M87.64,38.99L87.64,38.99c-0.39-7.45-6.01-19.97-23.18-20.29c0,0-0.32-0.01-0.46-0.01     c-0.14,0-0.46,0.01-0.46,0.01c-17.17,0.32-22.79,12.84-23.18,20.29l0,0C40.36,44.82,87.64,44.82,87.64,38.99z" /></defs><use
         xlink:href="#SVGID_1_"
         style="overflow:visible;fill:#6E7177;"
         id="use631" /><clipPath
         id="SVGID_2_"><use
           xlink:href="#SVGID_1_"
           style="overflow:visible;"
           id="use634" /></clipPath></g></g></svg>
